img/vector-4.svg

<svg fill="none" height="135" viewBox="0 0 240 135" width="240" xmlns="http://www.w3.org/2000/svg"><path d="m205.464 67.5512 32.344 33.3678c2.692 2.777 2.078 7.341-1.253 9.308-2.02 1.193-4.552 1.094-6.473-.253l-31.517-22.1118c-11.533-8.0907-26.143-10.4345-39.627-6.357l-22.343 6.7561c-6.548 1.9801-7.485 10.8644-1.493 14.1667l29.926 16.492c4.514 2.488 5.82 8.374 2.78 12.537-2.02 2.768-5.498 4.063-8.837 3.291l-51.954-12.015c-23.217-5.931-44.4006-18.023-61.3122-34.9994l-36.6565-36.7964c-13.53482-13.5864-10.63755-36.287 5.8758-46.03841 10.1245-5.97863 22.8382-5.346046 32.3191 1.60806l30.2802 22.21005c11.9347 8.7539 25.8096 14.4907 40.4416 16.7209l63.339 9.6545c9.198 1.402 17.684 5.778 24.16 12.4589z" fill="#5b57ca"/></svg>

<svg width="240" height="135" viewBox="0 0 240 135" fill="none" xmlns="http://www.w3.org/2000/svg">
<path d="M205.464 67.5512L237.808 100.919C240.5 103.696 239.886 108.26 236.555 110.227C234.535 111.42 232.003 111.321 230.082 109.974L198.565 87.8622C187.032 79.7715 172.422 77.4277 158.938 81.5052L136.595 88.2613C130.047 90.2414 129.11 99.1257 135.102 102.428L165.028 118.92C169.542 121.408 170.848 127.294 167.808 131.457C165.788 134.225 162.31 135.52 158.971 134.748L107.017 122.733C83.8 116.802 62.6164 104.71 45.7048 87.7336L9.0483 50.9372C-4.48652 37.3508 -1.58925 14.6502 14.9241 4.89879C25.0486 -1.07984 37.7623 -0.447256 47.2432 6.50685L77.5234 28.7169C89.4581 37.4708 103.333 43.2076 117.965 45.4378L181.304 55.0923C190.502 56.4943 198.988 60.8703 205.464 67.5512Z" fill="#5B57CA"/>
</svg>
